Simply-Blue-Circles/scalable/panel/update-high.svg

<svg xmlns="http://www.w3.org/2000/svg" width="24" height="24" id="svg11"><defs id="defs3"><style id="current-color-scheme"/></defs><path d="M12 2.422a9.58 9.58 0 0 0-9.58 9.58A9.58 9.58 0 0 0 12 21.58a9.58 9.58 0 0 0 9.58-9.578A9.58 9.58 0 0 0 12 2.42zm-.027 1.426a8.235 8.235 0 0 1 8.235 8.235 8.235 8.235 0 0 1-8.235 8.235 8.235 8.235 0 0 1-8.234-8.235 8.235 8.235 0 0 1 8.234-8.234zm0 1.613a6.519 6.519 0 0 0-4.227 1.552c-.489.472.798 1.552 1.234 1.101a4.865 4.865 0 0 1 2.993-1.02 4.889 4.889 0 0 1 4.902 4.9 4.889 4.889 0 0 1-4.902 4.902 4.874 4.874 0 0 1-3.465-1.435 4.894 4.894 0 0 1-1.211-1.995h1.858L6.52 10.402l-2.632 3.062h1.72a6.538 6.538 0 0 0 6.366 5.066 6.55 6.55 0 0 0 6.534-6.535 6.548 6.548 0 0 0-6.534-6.534z" id="path2-36-3" fill="#2c89a0" stroke-width="1.523"/></svg>

<?xml version="1.0" encoding="UTF-8" standalone="no"?>
<svg
   xmlns:dc="http://purl.org/dc/elements/1.1/"
   xmlns:cc="http://creativecommons.org/ns#"
   xmlns:rdf="http://www.w3.org/1999/02/22-rdf-syntax-ns#"
   xmlns:svg="http://www.w3.org/2000/svg"
   xmlns="http://www.w3.org/2000/svg"
   xmlns:sodipodi="http://sodipodi.sourceforge.net/DTD/sodipodi-0.dtd"
   xmlns:inkscape="http://www.inkscape.org/namespaces/inkscape"
   width="24"
   height="24"
   id="svg11"
   version="1.1"
   sodipodi:docname="update-high.svg"
   inkscape:version="0.92.4 (5da689c313, 2019-01-14)">
  <metadata
     id="metadata8">
    <rdf:RDF>
      <cc:Work
         rdf:about="">
        <dc:format>image/svg+xml</dc:format>
        <dc:type
           rdf:resource="http://purl.org/dc/dcmitype/StillImage" />
        <dc:title></dc:title>
      </cc:Work>
    </rdf:RDF>
  </metadata>
  <sodipodi:namedview
     pagecolor="#ffffff"
     bordercolor="#666666"
     borderopacity="1"
     objecttolerance="10"
     gridtolerance="10"
     guidetolerance="10"
     inkscape:pageopacity="0"
     inkscape:pageshadow="2"
     inkscape:window-width="1366"
     inkscape:window-height="711"
     id="namedview6"
     showgrid="false"
     inkscape:zoom="9.8333333"
     inkscape:cx="1.0677966"
     inkscape:cy="12"
     inkscape:window-x="0"
     inkscape:window-y="25"
     inkscape:window-maximized="1"
     inkscape:current-layer="svg11" />
  <defs
     id="defs3">
    <style
       id="current-color-scheme" />
  </defs>
  <path
     d="M 12,2.422 A 9.58,9.58 0 0 0 2.42,12.002 9.58,9.58 0 0 0 12,21.58 9.58,9.58 0 0 0 21.58,12.002 9.58,9.58 0 0 0 12,2.42 Z m -0.027,1.426 a 8.235,8.235 0 0 1 8.235,8.235 8.235,8.235 0 0 1 -8.235,8.235 8.235,8.235 0 0 1 -8.234,-8.235 8.235,8.235 0 0 1 8.234,-8.234 z m 0,1.613 A 6.519,6.519 0 0 0 7.746,7.013 C 7.257,7.485 8.544,8.565 8.98,8.114 a 4.865,4.865 0 0 1 2.993,-1.02 4.889,4.889 0 0 1 4.902,4.9 4.889,4.889 0 0 1 -4.902,4.902 A 4.874,4.874 0 0 1 8.508,15.461 4.894,4.894 0 0 1 7.297,13.466 H 9.155 L 6.52,10.402 3.888,13.464 h 1.72 a 6.538,6.538 0 0 0 6.366,5.066 6.55,6.55 0 0 0 6.534,-6.535 6.548,6.548 0 0 0 -6.534,-6.534 z"
     id="path2-36-3"
     inkscape:connector-curvature="0"
     style="fill:#2c89a0;stroke-width:1.523" />
</svg>
